X: 118104
Q: "Reel."
M: C
L: 1/8
K: Am
|: vA>uG |\
E>A A/A/A A2Bc | B2AG (uBd)dg |\
e>e e/e/e d2eg | e2dB A2 :|\
e>a a/a/a a2ga | b2ag e2eg |\
d>g g/g/g g2ab | B2AG (Bd)dg |\
e>e e/e/e d2eg | e2dB A2 |]


